X: 2
T: Roll Her On The Mountain
Z: swisspiper
S: https://thesession.org/tunes/4594#setting17157
R: reel
M: 4/4
L: 1/8
K: Dmaj
A2FA A2FD|B2B(A Bc)dB|A2FA (DF)AF|GABc dfdB|!A2FA A2FD|B2B(A Bc)dB|A2FA (dB)AF|GBAG F2D2||!d2d(f ed)cB|(ABc)d (efg)e|d2d(f ed)cA|BGFG E2D2|!d2d(f ed)cB|ABcd efge|((3fga) ((3fga) gece|dBAF E2D2|]
